TV/Source/3e.svg

<svg height="475.63675pt" viewBox="0 0 750.146 475.63675" width="750.146pt" xmlns="http://www.w3.org/2000/svg"><path d="m208.27 277.29c36.32-14.33 76.2-17.52 114.84-14.07 32.66 3.05 65.31 11.93 93.23 29.54 16.81 10.61 31.77 24.47 42.5 41.28 9.34 14.59 15.45 31.58 15.66 49.03-.05 17.66-2.89 35.69-11.04 51.53-6.91 13.63-17.71 25.1-30.44 33.47-15.1 9.96-32.45 15.96-50.02 19.8 19.3 4.47 38.3 11.26 55 22.08 13.19 8.51 24.77 19.78 32.61 33.46 8.01 13.81 11.9 29.75 12.42 45.65.71 23.17-3.65 46.79-14.53 67.4-13.94 26.84-38.33 47.01-65.44 59.7-39.13 18.33-83.34 23.92-126.15 20.45-35.24-2.93-70.48-12.15-100.95-30.47-20.16-12.13-38.04-28.56-50.24-48.79-1.8-2.81-.37-6.71 2.61-8.01 27.02-15.61 54.06-31.19 81.07-46.82 1.99-1.1 4.05-2.73 6.48-2.22 2.21.29 3.57 2.22 5.09 3.63 15.62 15.33 37.22 24.14 59.03 24.84 13.88.42 28.3-1.42 40.58-8.28 10.01-5.54 17.9-15.1 20.56-26.32 3.14-13.22.43-28.31-8.94-38.47-8.8-9.53-21.56-14.14-34.05-16.39-14.28-2.4-28.81-2.4-43.24-2.47-3.1.16-5.73-2.77-5.42-5.81.03-24.64-.03-49.28.03-73.91-.08-2.83 2.57-5.34 5.4-5.1 14.96-.12 30.08-.33 44.75-3.6 10.3-2.39 20.61-6.89 27.58-15.12 7.28-8.53 9.73-20.28 8.81-31.24-.77-9.12-5.54-17.68-12.6-23.43-9.39-7.67-21.42-11.66-33.41-12.59-18.35-.61-37.97 1.64-53.29 12.64-3.18 2.14-5.85 4.89-8.66 7.46-1.78 1.58-4.54 1.41-6.47.2-27.7-15.98-55.4-31.96-83.08-47.97-3.35-1.6-3.79-6.32-1.32-8.89 17.87-23.92 43.48-41.26 71.04-52.19z" fill="#e17900" transform="translate(-124.92669 -261.9456)"/><path d="m757.78906 74.261719c-9.22701-.021328-18.455.482578-27.625 1.517578-40.72 4.48-80.22721 19.560053-113.56054 43.386723-37.68 26.74666-67.47935 64.46638-84.66602 107.37304-20.25333 50.12-22.92036 107.06659-7.70703 158.91992 13 44.72 39.33464 85.40105 74.66797 115.73438 32.41333 28.01333 72.38526 47.21284 114.55859 54.82617 48.90667 8.93333 100.54797 2.66635 145.66797-18.32031 36.8-16.96 69.18664-43.33258 93.30664-75.89258 25.21333-33.82667 41.33247-74.38664 46.11914-116.30664 5.70662-48.72-3.50737-99.1474-26.7207-142.41406-22.29333-41.94667-57.15933-77.08063-98.97266-99.64063-35.12166-19.15333-75.08464-29.091169-115.06836-29.183591zm1.97071 73.933591c14.88489.11668 29.76601 2.10555 44.16601 5.81055 26.86668 7.02667 51.70503 21.93225 70.01172 42.87891 14.76 16.50668 25.13445 36.54755 31.81445 57.57421 6.02671 19.08 9.92063 38.9206 10.64063 58.94727.1067 11.73333-.29405 23.46522-1.02735 35.17187-75.3333-.01338-150.66665-.00033-226-.01367 3.24 18.86668 12.85261 37.09439 28.58594 48.42774 18.48 13.66665 42.61301 16.98661 64.98633 14.61328 17.54668-1.96 35.46839-8.30646 47.76172-21.45313 20.84002 12.09335 41.67926 24.19999 62.50586 36.30664-12.41331 18.74667-30.5191 33.32046-50.8125 42.78711-49.62663 23.28-109.54696 21.87985-158.62696-2.16015-18.05333-8.92-34.41355-21.44-47.24023-37-14.16-17.04-23.73365-37.46749-30.32031-58.49414-15.16-48.65335-7.92016-103.00024 16.83984-147.24024 21.76-37.25333 59.85254-64.54566 102.19922-72.95898 11.35749-2.24584 22.93849-3.28807 34.51563-3.19727zm-1.66016 73.7168c-14.12988-.09833-28.26964 3.72855-39.48047 12.54687-17.48 13.69335-26.84081 35.33275-30.49414 56.7461 46.34667.06666 92.6924.02734 139.03906.02734-2.05332-15.70666-7.17336-31.32109-16.69336-44.12109-8.13332-11.08-20.05143-19.33241-33.38476-22.73242-6.14167-1.56666-12.56366-2.42213-18.98633-2.4668z" fill="#e05206" stroke-width="1.333333" transform="scale(.75000002)"/></svg>

<?xml version="1.0" encoding="UTF-8" standalone="no"?>
<svg
   xmlns:dc="http://purl.org/dc/elements/1.1/"
   xmlns:cc="http://creativecommons.org/ns#"
   xmlns:rdf="http://www.w3.org/1999/02/22-rdf-syntax-ns#"
   xmlns:svg="http://www.w3.org/2000/svg"
   xmlns="http://www.w3.org/2000/svg"
   xmlns:sodipodi="http://sodipodi.sourceforge.net/DTD/sodipodi-0.dtd"
   xmlns:inkscape="http://www.inkscape.org/namespaces/inkscape"
   width="750.146pt"
   height="475.63675pt"
   viewBox="0 0 750.146 475.63675"
   version="1.1"
   id="svg10"
   sodipodi:docname="3e.svg"
   inkscape:version="0.92.0 r15299">
  <metadata
     id="metadata16">
    <rdf:RDF>
      <cc:Work
         rdf:about="">
        <dc:format>image/svg+xml</dc:format>
        <dc:type
           rdf:resource="http://purl.org/dc/dcmitype/StillImage" />
        <dc:title />
      </cc:Work>
    </rdf:RDF>
  </metadata>
  <defs
     id="defs14" />
  <sodipodi:namedview
     pagecolor="#ffffff"
     bordercolor="#666666"
     borderopacity="1"
     objecttolerance="10"
     gridtolerance="10"
     guidetolerance="10"
     inkscape:pageopacity="0"
     inkscape:pageshadow="2"
     inkscape:window-width="1920"
     inkscape:window-height="1017"
     id="namedview12"
     showgrid="false"
     fit-margin-top="0"
     fit-margin-left="0"
     fit-margin-right="0"
     fit-margin-bottom="0"
     inkscape:zoom="0.708"
     inkscape:cx="181.72852"
     inkscape:cy="317.05211"
     inkscape:window-x="-8"
     inkscape:window-y="-8"
     inkscape:window-maximized="1"
     inkscape:current-layer="svg10" />
  <g
     id="#e17900ff"
     transform="translate(-124.92669,-261.9456)">
    <path
       d="m 208.27,277.29 c 36.32,-14.33 76.2,-17.52 114.84,-14.07 32.66,3.05 65.31,11.93 93.23,29.54 16.81,10.61 31.77,24.47 42.5,41.28 9.34,14.59 15.45,31.58 15.66,49.03 -0.05,17.66 -2.89,35.69 -11.04,51.53 -6.91,13.63 -17.71,25.1 -30.44,33.47 -15.1,9.96 -32.45,15.96 -50.02,19.8 19.3,4.47 38.3,11.26 55,22.08 13.19,8.51 24.77,19.78 32.61,33.46 8.01,13.81 11.9,29.75 12.42,45.65 0.71,23.17 -3.65,46.79 -14.53,67.4 -13.94,26.84 -38.33,47.01 -65.44,59.7 -39.13,18.33 -83.34,23.92 -126.15,20.45 -35.24,-2.93 -70.48,-12.15 -100.95,-30.47 -20.16,-12.13 -38.04,-28.56 -50.24,-48.79 -1.8,-2.81 -0.37,-6.71 2.61,-8.01 27.02,-15.61 54.06,-31.19 81.07,-46.82 1.99,-1.1 4.05,-2.73 6.48,-2.22 2.21,0.29 3.57,2.22 5.09,3.63 15.62,15.33 37.22,24.14 59.03,24.84 13.88,0.42 28.3,-1.42 40.58,-8.28 10.01,-5.54 17.9,-15.1 20.56,-26.32 3.14,-13.22 0.43,-28.31 -8.94,-38.47 -8.8,-9.53 -21.56,-14.14 -34.05,-16.39 -14.28,-2.4 -28.81,-2.4 -43.24,-2.47 -3.1,0.16 -5.73,-2.77 -5.42,-5.81 0.03,-24.64 -0.03,-49.28 0.03,-73.91 -0.08,-2.83 2.57,-5.34 5.4,-5.1 14.96,-0.12 30.08,-0.33 44.75,-3.6 10.3,-2.39 20.61,-6.89 27.58,-15.12 7.28,-8.53 9.73,-20.28 8.81,-31.24 -0.77,-9.12 -5.54,-17.68 -12.6,-23.43 -9.39,-7.67 -21.42,-11.66 -33.41,-12.59 -18.35,-0.61 -37.97,1.64 -53.29,12.64 -3.18,2.14 -5.85,4.89 -8.66,7.46 -1.78,1.58 -4.54,1.41 -6.47,0.2 -27.7,-15.98 -55.4,-31.96 -83.08,-47.97 -3.35,-1.6 -3.79,-6.32 -1.32,-8.89 17.87,-23.92 43.48,-41.26 71.04,-52.19 z"
       id="path2"
       inkscape:connector-curvature="0"
       style="opacity:1;fill:#e17900" />
  </g>
  <path
     style="opacity:1;fill:#e05206;stroke-width:1.33333325"
     d="M 757.78906 74.261719 C 748.56205 74.240391 739.33406 74.744297 730.16406 75.779297 C 689.44406 80.259297 649.93685 95.33935 616.60352 119.16602 C 578.92352 145.91268 549.12417 183.6324 531.9375 226.53906 C 511.68417 276.65906 509.01714 333.60565 524.23047 385.45898 C 537.23047 430.17898 563.56511 470.86003 598.89844 501.19336 C 631.31177 529.20669 671.2837 548.4062 713.45703 556.01953 C 762.3637 564.95286 814.005 558.68588 859.125 537.69922 C 895.925 520.73922 928.31164 494.36664 952.43164 461.80664 C 977.64497 427.97997 993.76411 387.42 998.55078 345.5 C 1004.2574 296.78 995.04341 246.3526 971.83008 203.08594 C 949.53675 161.13927 914.67075 126.00531 872.85742 103.44531 C 837.73576 84.29198 797.77278 74.354141 757.78906 74.261719 z M 759.75977 148.19531 C 774.64466 148.31199 789.52578 150.30086 803.92578 154.00586 C 830.79246 161.03253 855.63081 175.93811 873.9375 196.88477 C 888.6975 213.39145 899.07195 233.43232 905.75195 254.45898 C 911.77866 273.53898 915.67258 293.37958 916.39258 313.40625 C 916.49928 325.13958 916.09853 336.87147 915.36523 348.57812 C 840.03193 348.56474 764.69858 348.57779 689.36523 348.56445 C 692.60523 367.43113 702.21784 385.65884 717.95117 396.99219 C 736.43117 410.65884 760.56418 413.9788 782.9375 411.60547 C 800.48418 409.64547 818.40589 403.29901 830.69922 390.15234 C 851.53924 402.24569 872.37848 414.35233 893.20508 426.45898 C 880.79177 445.20565 862.68598 459.77944 842.39258 469.24609 C 792.76595 492.52609 732.84562 491.12594 683.76562 467.08594 C 665.71229 458.16594 649.35207 445.64594 636.52539 430.08594 C 622.36539 413.04594 612.79174 392.61845 606.20508 371.5918 C 591.04508 322.93845 598.28492 268.59156 623.04492 224.35156 C 644.80492 187.09823 682.89746 159.8059 725.24414 151.39258 C 736.60163 149.14674 748.18263 148.10451 759.75977 148.19531 z M 758.09961 221.91211 C 743.96973 221.81378 729.82997 225.64066 718.61914 234.45898 C 701.13914 248.15233 691.77833 269.79173 688.125 291.20508 C 734.47167 291.27174 780.8174 291.23242 827.16406 291.23242 C 825.11074 275.52576 819.9907 259.91133 810.4707 247.11133 C 802.33738 236.03133 790.41927 227.77892 777.08594 224.37891 C 770.94427 222.81225 764.52228 221.95678 758.09961 221.91211 z "
     transform="scale(0.75000002)"
     id="path5" />
</svg>
